packages/icon/src/svg/location.icon.svg

<svg width="24" height="24" viewBox="0 0 24 24" fill="none" xmlns="http://www.w3.org/2000/svg">
<path fill-rule="evenodd" clip-rule="evenodd" d="M5 9C5 11.5464 7.19751 15.9121 11.5924 22.0969C11.6249 22.1426 11.6647 22.1825 11.7103 22.2149C11.9355 22.3749 12.2477 22.3221 12.4077 22.0969C16.8025 15.9121 19 11.5464 19 9C19 5.14001 15.859 2 12 2C8.14099 2 5 5.14001 5 9ZM7 9C7 6.24298 9.24304 4 12 4C14.757 4 17 6.24298 17 9C17 11.589 13.8929 16.582 12 19.291C10.1071 16.583 7 11.591 7 9ZM12 12C10.3459 12 9 10.655 9 9C9 7.34601 10.3459 6 12 6C13.6541 6 15 7.34601 15 9C15 10.655 13.6541 12 12 12ZM11 9C11 8.44897 11.449 8 12 8C12.551 8 13 8.44897 13 9C13 9.552 12.551 10 12 10C11.449 10 11 9.552 11 9Z" fill="white"/>
</svg>

<svg aria-label="location icon" viewBox="0 0 24 24"><path fill-rule="evenodd" clip-rule="evenodd" d="M5 9c0 2.546 2.198 6.912 6.592 13.097a.5.5 0 00.816 0C16.802 15.912 19 11.547 19 9c0-3.86-3.141-7-7-7S5 5.14 5 9zm2 0c0-2.757 2.243-5 5-5s5 2.243 5 5c0 2.589-3.107 7.582-5 10.291-1.893-2.708-5-7.7-5-10.291zm5 3c-1.654 0-3-1.345-3-3 0-1.654 1.346-3 3-3s3 1.346 3 3c0 1.655-1.346 3-3 3zm-1-3c0-.551.449-1 1-1a1.001 1.001 0 11-1 1z"/></svg>
